public/operators/nobg/betway.svg

<svg width="123" height="35" viewBox="0 0 123 35" fill="none" xmlns="http://www.w3.org/2000/svg">
<path d="M6.98792 7.15494C7.54395 6.99193 8.1107 6.86723 8.68411 6.78174C9.36656 6.68251 10.0557 6.63572 10.7454 6.64179C12.0496 6.6204 13.3431 6.87694 14.5383 7.39402C15.6155 7.86346 16.5762 8.55998 17.3535 9.43495C18.1323 10.3459 18.7217 11.4001 19.088 12.5372C19.489 13.761 19.6879 15.0409 19.6769 16.3275C19.7119 17.9203 19.4338 19.5046 18.8583 20.9925C18.3618 22.2426 17.5749 23.3593 16.5614 24.2521C15.5453 25.1262 14.3556 25.7798 13.0689 26.1706C11.6379 26.6043 10.1481 26.8177 8.65172 26.8033C7.05562 26.8192 5.46224 26.6668 3.89887 26.3485C2.5731 26.0686 1.26996 25.6924 0 25.2231V0H6.98792V7.15494ZM6.98792 21.4677C7.58571 21.6342 8.20455 21.7147 8.82546 21.7068C9.93607 21.7427 11.005 21.2863 11.7408 20.4618C12.4868 19.6299 12.8588 18.3577 12.8568 16.6453C12.8568 14.9834 12.4907 13.7579 11.7584 12.9687C11.0544 12.1893 10.0402 11.7554 8.98447 11.782C8.63543 11.7792 8.28707 11.8125 7.94497 11.8812C7.62105 11.9476 7.30145 12.0333 6.98792 12.1377V21.4677Z" fill="white"/>
<path d="M27.3126 18.0273C27.3656 19.1936 27.7454 20.0964 28.4522 20.7359C29.1879 21.3953 30.1549 21.7438 31.1466 21.7068C31.9259 21.7271 32.6989 21.5642 33.4023 21.2316C34.0788 20.8724 34.6709 20.3756 35.1397 19.7738L39.4126 23.0947C38.9774 23.6327 38.4836 24.1216 37.9402 24.5525C36.685 25.544 35.204 26.2166 33.6261 26.5118C32.606 26.7028 31.5694 26.7946 30.5312 26.7858C29.2066 26.7961 27.89 26.5821 26.6382 26.1531C24.2073 25.3402 22.2591 23.5124 21.3082 21.1528C20.7492 19.7626 20.4778 18.2754 20.5102 16.7794C20.484 15.3148 20.7419 13.8588 21.2699 12.4905C21.7285 11.3001 22.4302 10.2163 23.3312 9.30667C24.2273 8.41962 25.3103 7.73961 26.5028 7.3153C27.7624 6.85787 29.0953 6.62969 30.437 6.64179C33.3385 6.64179 35.6471 7.57091 37.363 9.42913C39.079 11.2873 39.9505 14.1533 39.978 18.0273H27.3126ZM33.4229 14.3507C33.3963 13.4592 33.0652 12.603 32.4836 11.922C31.9901 11.3506 31.267 11.024 30.5076 11.0298C29.7086 11.0323 28.9475 11.3678 28.411 11.9541C27.7892 12.6139 27.415 13.4651 27.3508 14.3653L33.4229 14.3507Z" fill="white"/>
<path d="M39.8103 11.9016V7.07913H42.5666V2.21295H49.5545V7.07913H52.517L54.2426 11.9016H49.5545V19.6484C49.5338 20.1712 49.6076 20.6936 49.7724 21.1907C49.9197 21.561 50.2465 21.7447 50.753 21.7447C51.2277 21.744 51.696 21.6363 52.1224 21.4298C52.5383 21.2328 52.933 20.9944 53.3003 20.7184L55.0966 24.9082C54.2229 25.5122 53.2605 25.9794 52.2431 26.2931C51.0821 26.6269 49.877 26.7861 48.6682 26.7654C47.6832 26.7914 46.7019 26.6372 45.7734 26.3106C45.0441 26.0444 44.3926 25.6037 43.877 25.0277C43.3824 24.4435 43.0333 23.7524 42.8581 23.0101C42.6525 22.1426 42.5536 21.2537 42.5637 20.3627V11.9074L39.8103 11.9016Z" fill="white"/>
<path d="M60.512 26.3718L51.8779 2.20421H58.6332L63.6393 17.3188L66.6341 7.07913H71.175L74.1698 17.3188L77.0439 7.07913H84.1908L77.2824 26.3718H71.9318L68.8574 16.2488L65.8243 26.3718H60.512Z" fill="white"/>
<path d="M95.1513 26.3718L94.5918 24.8673C93.9622 25.4274 93.2306 25.8638 92.4363 26.1531C91.4285 26.5267 90.3583 26.7078 89.2824 26.6867C88.4269 26.6946 87.5761 26.5616 86.7647 26.2931C86.0197 26.0449 85.3341 25.648 84.7504 25.1268C84.178 24.6149 83.7214 23.9889 83.4106 23.29C83.0796 22.5148 82.9171 21.6794 82.9335 20.838C82.876 19.1664 83.6236 17.5672 84.9477 16.5287C85.6054 16.0108 86.3406 15.5977 87.1269 15.3041C87.9753 14.9801 88.8587 14.7542 89.7595 14.6306C90.6135 14.4994 91.4027 14.4003 92.1359 14.339C92.8691 14.2778 93.5406 14.2253 94.1531 14.1991V13.7209C94.1531 12.9279 93.8998 12.3506 93.3933 11.9715C92.8718 11.5974 92.2408 11.4028 91.597 11.4176C90.8492 11.4134 90.1085 11.5612 89.4208 11.852C88.7175 12.1645 88.0582 12.5664 87.4596 13.0474L84.3293 9.62155C85.3891 8.7029 86.5977 7.96761 87.9043 7.4465C89.4164 6.88688 91.0228 6.61867 92.6365 6.65637C95.1886 6.65637 97.2245 7.26961 98.7439 8.49612C100.263 9.72264 101.022 11.6266 101.02 14.2078V26.3718H95.1513ZM94.1531 17.6249C93.7526 17.6512 93.355 17.6833 92.9545 17.7241C92.5541 17.7649 92.1418 17.8232 91.7177 17.9019C90.8932 18.0331 90.3043 18.3159 89.9509 18.7504C89.6113 19.1614 89.428 19.6772 89.4326 20.2082C89.418 20.7264 89.6332 21.225 90.0216 21.5727C90.4703 21.9511 91.0499 22.1424 91.6382 22.1063C92.1074 22.1123 92.5737 22.0322 93.0134 21.8701C93.4218 21.7139 93.8055 21.5009 94.1531 21.2374V17.6249Z" fill="white"/>
<path d="M102.808 28.506C103.227 28.7349 103.669 28.9206 104.127 29.06C104.577 29.2084 105.048 29.2881 105.523 29.2962C105.948 29.3109 106.37 29.2101 106.742 29.0046C107.097 28.7613 107.368 28.4164 107.519 28.0162L108.638 25.5263L100.372 7.07913H107.958L111.901 18.3451L115.815 7.07913H123L113.259 29.9289C112.568 31.5344 111.629 32.6676 110.443 33.3285C109.163 34.0105 107.725 34.3511 106.271 34.3169C105.33 34.3251 104.391 34.2193 103.476 34.002C102.642 33.7955 101.827 33.5174 101.041 33.171L102.808 28.506Z" fill="white"/>
</svg>

<svg xmlns="http://www.w3.org/2000/svg" width="123" height="35" fill="none"><path fill="#fff" d="M6.99 7.15a12.67 12.67 0 0 1 3.76-.5c1.3-.03 2.6.23 3.79.74a8.09 8.09 0 0 1 4.55 5.15c.4 1.22.6 2.5.59 3.79.03 1.59-.25 3.17-.82 4.66a8.55 8.55 0 0 1-2.3 3.26 9.66 9.66 0 0 1-3.5 1.92c-1.42.43-2.91.65-4.4.63a22.7 22.7 0 0 1-4.76-.45A27.84 27.84 0 0 1 0 25.22V0h6.99v7.15Zm0 14.32c.6.16 1.21.24 1.84.24a3.75 3.75 0 0 0 2.91-1.25c.75-.83 1.12-2.1 1.12-3.81 0-1.67-.37-2.9-1.1-3.68a3.62 3.62 0 0 0-2.78-1.19c-.34 0-.7.03-1.04.1-.32.07-.64.15-.95.26v9.33ZM27.31 18.03a3.7 3.7 0 0 0 1.14 2.7c.74.67 1.7 1.01 2.7.98.78.02 1.55-.15 2.25-.48a5.43 5.43 0 0 0 1.74-1.46l4.27 3.32a9.9 9.9 0 0 1-5.79 3.42c-1.01.2-2.05.28-3.09.28-1.32 0-2.64-.2-3.9-.64a8.72 8.72 0 0 1-5.32-5 11.08 11.08 0 0 1-.8-4.37c-.03-1.47.23-2.92.76-4.29a8.61 8.61 0 0 1 5.23-5.18c1.26-.45 2.6-.68 3.94-.67 2.9 0 5.2.93 6.92 2.79 1.72 1.86 2.59 4.72 2.62 8.6H27.3Zm6.11-3.68a3.92 3.92 0 0 0-.94-2.43c-.49-.57-1.21-.9-1.97-.89-.8 0-1.56.34-2.1.92-.62.66-1 1.52-1.06 2.42l6.07-.02ZM39.81 11.9V7.08h2.76V2.2h6.98v4.87h2.97l1.72 4.82h-4.69v7.75c-.02.52.06 1.04.22 1.54.15.37.48.55.98.55.48 0 .95-.1 1.37-.31.42-.2.81-.44 1.18-.71l1.8 4.19a10.41 10.41 0 0 1-6.43 1.86 8.08 8.08 0 0 1-2.9-.46 4.71 4.71 0 0 1-1.9-1.28A4.85 4.85 0 0 1 42.87 23c-.2-.87-.3-1.76-.3-2.65v-8.45h-2.75ZM60.51 26.37 51.88 2.2h6.75l5 15.12 3-10.24h4.55l2.99 10.24 2.87-10.24h7.15l-6.9 19.3h-5.36l-3.07-10.13-3.04 10.12h-5.3ZM95.15 26.37l-.56-1.5c-.63.56-1.36 1-2.15 1.28-1.01.38-2.08.56-3.16.54-.85 0-1.7-.13-2.52-.4a5.75 5.75 0 0 1-2.01-1.16 5.42 5.42 0 0 1-1.82-4.3 5.25 5.25 0 0 1 2.02-4.3 8.1 8.1 0 0 1 2.18-1.23c.85-.32 1.73-.55 2.63-.67a34.9 34.9 0 0 1 4.4-.43v-.48c0-.8-.26-1.37-.77-1.75a2.97 2.97 0 0 0-1.8-.55 5.5 5.5 0 0 0-2.17.43 8.9 8.9 0 0 0-1.96 1.2l-3.13-3.43a12.56 12.56 0 0 1 3.57-2.17c1.52-.56 3.12-.83 4.74-.8 2.55 0 4.58.62 6.1 1.85 1.52 1.22 2.28 3.13 2.28 5.7v12.17h-5.87Zm-1-8.75-1.2.1c-.4.04-.8.1-1.23.18-.83.13-1.42.42-1.77.85-.34.41-.52.93-.52 1.46-.01.52.2 1.02.6 1.36a2.3 2.3 0 0 0 1.6.54c.48 0 .94-.08 1.38-.24.41-.16.8-.37 1.14-.63v-3.62Z"/><path fill="#fff" d="M102.8 28.5a7 7 0 0 0 1.33.56c.45.15.92.23 1.4.24.42.01.84-.09 1.21-.3.36-.24.63-.58.78-.98l1.12-2.5-8.27-18.44h7.59l3.94 11.27 3.91-11.27H123l-9.74 22.85a6.76 6.76 0 0 1-2.82 3.4 8.45 8.45 0 0 1-4.17.99c-.94 0-1.88-.1-2.8-.32-.83-.2-1.64-.48-2.43-.83l1.77-4.66Z"/></svg>
